X: 3424
T: Bessie's
R: reel
M: 4/4
K: Dmajor
|:A,D D/D/D FEDE|DFEF DA,A,D|B,E E/E/E GE^DE|cA^GA =GAFD|
A,D D/D/D FDCD|B,E E/E/E GE^DE|cA^GA =GAFD|A,DCE D4:|
|:c|dA A/A/A dA^GA|FA^GA ^GABA|eB B/B/B eB^AB|
gecA ^GA=GA|FD D/D/D CD=CD|B,DA,D G,EB,G|
EBGe Bgeb|gecA fed2:|

